X: 4867
T:Bluebird Schottische
M:C|
L:1/8
K:D
|:"D"D>FA>B A2 {fg}f2|D>FA>B A2 {fg}f2|"A7"(3ggg (3fff (3eee (3ddd|(3ccc
(3BBB (3AAA  3GGG|!"D"F>GA>B A2 {fg}f2|D>FA>B A2 {fg}f2|"A7"(3ggg (3fff
e>AB>c
|"D"d2 d2 d2 z2:|!
|:cd|"A"e2 (3ef^g ag a2|"A"c>Bc>d "E7"e^d e2|"E7"(3BBB e2 (3BBB e2|"E7"(
3ccc (3BBB "A"A2 cd|!
"A"e (3ef^g ag a2|"A"c>Bc>d "E7"e^d e2|"A"e>ag>f "E7"e>dc>B|"A"A2 A2 A2
z
||!
